X: 34844
T: Roaring Mary
R: reel
M: 4/4
K: Dmajor
D~F3 ADFA|d~f3 g2 fe|dedB A~F3|DFAF GFEF|
D~F3 ADFA|d~f3 g2 fe|dedB ABdf|afeg fd d2:|
|:abag fgfe|dedA BAFA|d~g3 b~g3|a~f3 ge e2|
D~F3 ADFA|d~f3 g2 fe|dedB ABdf|afeg fd d2:|

